!!!COM: Bach, Johann Sebastian
!!!CDT: 1685/3//-1750/7/28/
!!!OTL@@DE: Wo Gott der Herr nicht bei uns haelt
!!!AGN: 4-Part Chorale
!!!SCT: Erk 336
!!!SCT: BWV 258
!!!YEC: Copyright 2003 by Craig Stuart Sapp
!!!license: GNU General Public License (http://www.gnu.org/copyleft/gpl.html)
!!!SMA: 371 Bach Chorales, edited by Ludwig Erk, C.F. Peters
!!!PDT: 1850, 1865
!!!ONB: Harmony and Root analysis done manually by Craig Sapp
**kern	**kern	**kern	**kern	**root	**harm	**kern
!bass	!tenor	!alto	!soprno	!	!	!
*Iorgan	*Iorgan	*Iorgan	*Iorgan	*Iorgan	*	*Iorgan
*clefF4	*clefF2	*clefG2	*clefG2	*	*	*
*M4/4	*M4/4	*M4/4	*M4/4	*M4/4	*M4/4	*M4/4
*met(C)	*met(C)	*met(C)	*met(C)	*met(C)	*met(C)	*met(C)
*MM60	*MM60	*MM60	*MM60	*MM60	*MM60	*MM60
*k[f#c#]	*k[f#c#]	*k[f#c#]	*k[f#c#]	*k[f#c#]	*k[f#c#]	*k[f#c#]
*b:	*b:	*b:	*b:	*b:	*b:	*b:
*>[A,A,B]	*>[A,A,B]	*>[A,A,B]	*>[A,A,B]	*>[A,A,B]	*>[A,A,B]	*>[A,A,B]
*>A	*>A	*>A	*>A	*>A	*>A	*>A
4B	4d	8f#	4dd	4BB	i	4B 4dd 4ff#
.	.	8g	.	.	.	.
=1	=1	=1	=1	=1	=1	=1
4F#	4d	4a	4dd	4DD	IIIb	4d 4F# 4a
4G	4d	4g	8b	4GG	VI	4G 4b 4dd
.	.	.	8cc#	.	.	.
8F#	4d	4a	8dd	4DD	IIIb	4d 4F# 4a
8E	.	.	8ee	.	.	.
4D	4d	4a	4ff#	4DD	III	4D 4f# 4a
=2	=2	=2	=2	=2	=2	=2
4G#	4d	4b	4ee	4EE	V7b/-VII	4e 4G# 4b 4dd
4A	4c#	8a	4ee	4AA	V7/III	4A 4cc# 4ee 4gg
.	.	8g	.	.	.	.
4D;	4A;	4f#;	4dd;	4DD;	III;	4D; 4f#; 4a;
4BB	4B	4g#	4dd	4GG#	viiob/-VII	4g# 4B 4dd
=3	=3	=3	=3	=3	=3	=3
4AA	4e	4a	4cc#	4AA	-VII	4A 4cc# 4ee
4E	4e	4gn	8b	4EE	iv	4E 4g 4b
.	.	.	8cc#	.	.	.
8B	8d	4f#	4dd	4BB	i	4B 4dd 4ff#
8A	8c#	.	.	.	.	.
8G	4B	8e	8ee	8EE	iv	8E 8g 8b
8F#	.	8f#	8dd	8BB	ic	8b 8dd 8F#
=4	=4	=4	=4	=4	=4	=4
4E	4B	4g	2cc#	4CC#	ii7Db	4c# 4E 4g# 4b
4F#	8A#	4f#	.	4FF#	V7	4F# 4a# 4cc# 4ee
.	8e	.	.	.	.	.
4BB;	4d;	4f#;	4b;	4BB	i	4B 4dd 4ff#
=:|!	=:|!	=:|!	=:|!	=:|!	=:|!	=:|!
*>B	*>B	*>B	*>B	*>B	*>B	*>B
4C#	4An	4a	4ee	4AA	-VIIb	4a 4C# 4ee
=5	=5	=5	=5	=5	=5	=5
8D	4A	4a	4ff#	2DD	III	2D 2f# 2a
8E	.	.	.	.	.	.
8F#	8A	4a	4ff#	.	.	.
8G	8B	.	.	.	.	.
4A	4c#	8e	8cc#	4AA	-VII	4A 4cc# 4ee
.	.	8f#	8dd	.	.	.
4A#	4c#	4g	4ee	4AA#	vii7o	4A# 4cc# 4ee 4gg
=6	=6	=6	=6	=6	=6	=6
4B	8d	4f#	4dd	4BB	i	4B 4dd 4ff#
.	8c#	.	.	.	.	.
4E#	4B	4g#	4dd	4EE#	vii7o/V	4E# 4g# 4b 4dd#
4F#;	4f#;	4a#;	4cc#;	4FF#	V	4F# 4a# 4cc#
8B	4f#	4b	4dd	4BB	i	4B 4dd 4ff#
8A	.	.	.	.	.	.
=7	=7	=7	=7	=7	=7	=7
8G#	4B	8b	4ee	2EE	V/-VII	2E 2g# 2b
8F#	.	8a	.	.	.	.
4E	4e	4g#	8b	.	.	.
.	.	.	8cc#	.	.	.
8F#	8A	4f#	4dd	4DD	III	4D 4f# 4a
8G#	8B	.	.	.	.	.
4A	4c#	4e	4cc#	4AA	-VII	4A 4cc# 4ee
=8	=8	=8	=8	=8	=8	=8
4D#	4f#	4a	4b	4BB	V7b/IV	4b 4D# 4ff# 4aa
4E	8e	4g#	4b	4EE	V7/-VII	4E 4g# 4b 4dd
.	8d	.	.	.	.	.
4AA;	4c#;	4e;	4a;	4AA	-VII	4A 4cc# 4ee
4BB	4d	4g#	4dd	4GG#	viiob/-VII	4g# 4B 4dd
=9	=9	=9	=9	=9	=9	=9
8C#	4e	4a	4cc#	4AA	-VIIb	4a 4C# 4ee
8D	.	.	.	.	.	.
4E	4e	8g#	8b	4EE	V/-VII	4E 4g# 4b
.	.	8a#	8cc#	.	.	.
8B	4f#	4b	4dd	4BB	i	4B 4dd 4ff#
8A	.	.	.	.	.	.
8G	4B	8b	8ee	8EE	iv	8E 8g 8b
8F#	.	8f#	8dd	8BB	ic	8b 8dd 8F#
=10	=10	=10	=10	=10	=10	=10
4E	4B	4g	2cc#	4CC#	ii7Db	4c# 4E 4g# 4b
4F#	4A#	8f#	.	4FF#	V7	4F# 4a# 4cc# 4ee
.	.	8e	.	.	.	.
4BB;	4F#;	4d;	4b;	4BB;	i;	4B; 4dd; 4ff#;
==	==	==	==	==	==	==
*-	*-	*-	*-	*-	*-	*-
